X:206
T: GUTE NACHT GUTE NACHT ALLEN MUEDEN SEIS GEBRACHT
N: B0244
O: Europa, Mitteleuropa, Deutschland
R: Tageszeiten - Lied, Nacht
M: 3/4
L: 1/16
K: Eb
G3F | E4z4B3A | G4z4
e3d | d2c2B2c2B3A | G4z8
F3GF2G2G2B2 | B2A2A4z4
G3AG2G2A2c2 | c2B2B4z4
e3Bc2A2F2B2 | G4z4
F3A | G4z4F3G | E4z4

